X:1
T:Violin Caprice No. 14 in E-Flat Major
T:Violin Caprice No. 14 in E-Flat Major
T:Op. 1, No. 14
T:Niccolò Paganini
C:Niccolò Paganini
%%score ( 1 2 )
L:1/8
Q:1/4=90
M:2/4
K:Eb
V:1 treble nm="Violin" snm="Vln."
V:2 treble 
V:1
"^Moderato" [EG][EG]/[EG]/ [EG][EG] | [EG][B,F] [G,E]2 | [EGB][EGB]/[EGB]/ [EGB][EGB] | %3
 [EGB][B,Fd] [G,Ee]2 | [EBg][EBg]/[EBg]/ [GBb][EBg] | [DBf][^Fe=a] [Gdb]2 | %6
 ([Ecb]=a/g/) ([E=Af]/g/a/f/) | ([DBb]2 B,) z :: BB/B/ BB | [Bd][Bd]/[Bd]/ [Bd][Bd] | %10
 [Bdf][Bdf]/[Bdf]/ [Bdf][Bdf] | [Ac^f][Acf]/[Acf]/ [Acf][Acf] | [G=Bg]g ([=FB^f]/g/a/g/) | %13
 [Ecg]c' ([_E=A=e]/f/_g/f/) | [DBf]b ([_DG=d]/e/_f/e/) | [CAe]a ([=C=F^c]/d/e/d/) | %16
 [=B,Gd]g ([_B,=E=B]/c/_d/c/) | [A,Fc]f[=A,Ff]e | [B,Fd]B,/B,/ [_CE=A][CEA] | %19
 [B,DB]f/f/ [E=A_g][EAg] | [DBf]B/B/ [_ce=a][cea] | [Bdb]f'/f'/ [e=a_g'][eag'] | %22
 [dbf']!p!f'/f'/ f'f' | f'[af']/[af']/"_cresc." [af'][af'] | [af'][_caf']/[caf']/ [caf'][caf'] | %25
!ff! [Baf'][A,D_c]/[A,Dc]/ [A,Dc][A,Dc] | !fermata![A,DB]2 !fermata!z2 |!p! EE/E/ EE | %28
 [E_G][EG]/[EG]/"_cresc." [EG][EG] | [E_G_c][EGc]/[EGc]/ [EGc][EGc] | %30
 [_C_Ge][CGe]/[CGe]/ [CGe][CGe] |!ff! [=A,_Ge=c'][A,Gec']/[A,Gec']/ [A,Gec'][A,Gec'] | %32
 [B,=Geb][bg']/[bg']/ [ge'][bg'] | [B,Fdb][af']/[af']/ [fd'][af'] | %34
 [EBge'](c'/b/) ([_Ad=a]/b/c'/b/) | [Geb]g ([=F=B^f]/g/_a/g/) | [Ecg]e ([_DG=d]/e/_f/e/) | %37
 [CAe][_C=Ae][B,Be][B,_Ad] | [EGe]B ([_A,D=A]/B/_c/B/) | [G,EB]e ([DBf]/g/a/b/) | %40
 [EBg]b ([_Ad=a]/b/_c'/b/) | [Geb]e' ([DB=a]/b/_a/f/) | [G,Ee][B,Fd][G,Ee][B,Fd] | %43
 [G,Ee][G,E]/[G,E]/ [G,E][G,E] | [G,E]2 z2 :| %45
V:2
 x4 | x4 | x4 | x4 | x4 | x4 | x4 | x4 :: BB/B/ BB | x4 | x4 | x4 | x4 | x4 | x4 | x4 | x4 | x4 | %18
 x4 | x4 | x4 | x4 | x4 | x4 | x4 | x4 | x4 | x4 | x4 | x4 | x4 | x4 | x4 | x4 | x4 | x4 | x4 | %37
 x4 | x4 | x4 | x4 | x4 | x4 | x4 | x4 :| %45

